build/logo/KubernetesOutline.svg

<svg xmlns="http://www.w3.org/2000/svg" fill="none" viewBox="0 0 24 24" focusable="false"><path d="M0 0H24V24H0z"/><path fill="#74767B" fill-rule="evenodd" d="M12.6513 2.88927C12.2401 2.69121 11.761 2.69121 11.3497 2.88927L5.29051 5.80722C4.87923 6.00528 4.58052 6.37985 4.47894 6.82489L2.98245 13.3815C2.88087 13.8265 2.98748 14.2936 3.27209 14.6505L7.46517 19.9084C7.74979 20.2653 8.18143 20.4732 8.63792 20.4732L15.3631 20.4732C15.8196 20.4732 16.2512 20.2653 16.5359 19.9084L20.7289 14.6505C21.0135 14.2936 21.1202 13.8265 21.0186 13.3815L19.5221 6.82489C19.4205 6.37985 19.1218 6.00528 18.7105 5.80722L12.6513 2.88927ZM18.1465 6.97848L12.0873 4.06053C12.0325 4.03412 11.9686 4.03412 11.9137 4.06053L5.85456 6.97848C5.79972 7.00488 5.75989 7.05483 5.74635 7.11417L4.24985 13.6707C4.23631 13.7301 4.25052 13.7923 4.28847 13.8399L8.48155 19.0979C8.5195 19.1455 8.57706 19.1732 8.63792 19.1732L15.3631 19.1732C15.424 19.1732 15.4815 19.1455 15.5195 19.0979L19.7126 13.8399C19.7505 13.7923 19.7647 13.7301 19.7512 13.6707L18.2547 7.11417C18.2411 7.05483 18.2013 7.00488 18.1465 6.97848ZM12.0002 6.00012C12.3592 6.00012 12.6502 6.29114 12.6502 6.65012L12.6502 7.77577C13.5119 7.90753 14.2886 8.29719 14.8992 8.86349L15.7832 8.15784C16.0637 7.93388 16.4727 7.97975 16.6967 8.26031C16.9206 8.54086 16.8748 8.94985 16.5942 9.17382L15.7073 9.88183C16.0618 10.5037 16.2644 11.2235 16.2644 11.9906C16.2644 12.0976 16.2605 12.2037 16.2527 12.3088L17.3706 12.5628C17.7207 12.6423 17.94 12.9906 17.8605 13.3406C17.7809 13.6907 17.4327 13.91 17.0826 13.8305L15.9602 13.5755C15.645 14.3622 15.1021 15.0332 14.413 15.5069L14.9179 16.5514C15.0742 16.8746 14.9388 17.2633 14.6156 17.4195C14.2924 17.5757 13.9038 17.4404 13.7475 17.1172L13.2418 16.0711C12.849 16.1905 12.4322 16.2546 12.0004 16.2546C11.5684 16.2546 11.1515 16.1904 10.7585 16.071L10.2528 17.1172C10.0965 17.4404 9.70787 17.5757 9.38466 17.4195C9.06146 17.2633 8.92612 16.8746 9.08236 16.5514L9.58738 15.5067C8.89844 15.033 8.35567 14.3621 8.04054 13.5754L6.91768 13.8305C6.56762 13.91 6.21936 13.6907 6.13983 13.3406C6.0603 12.9906 6.27961 12.6423 6.62967 12.5628L7.74801 12.3087C7.74027 12.2037 7.73633 12.0976 7.73633 11.9906C7.73633 11.2236 7.93883 10.5039 8.29329 9.88208L7.40608 9.17383C7.12553 8.94987 7.07965 8.54088 7.30362 8.26032C7.52758 7.97977 7.93657 7.93389 8.21713 8.15786L9.1013 8.86368C9.71188 8.29733 10.4886 7.90762 11.3502 7.77581L11.3502 6.65012C11.3502 6.29114 11.6413 6.00012 12.0002 6.00012ZM12.0004 14.9546C13.6374 14.9546 14.9644 13.6276 14.9644 11.9906C14.9644 10.3536 13.6374 9.02656 12.0004 9.02656C10.3634 9.02656 9.03633 10.3536 9.03633 11.9906C9.03633 13.6276 10.3634 14.9546 12.0004 14.9546ZM12 12.9907C12.5523 12.9907 13 12.543 13 11.9907C13 11.4384 12.5523 10.9907 12 10.9907C11.4477 10.9907 11 11.4384 11 11.9907C11 12.543 11.4477 12.9907 12 12.9907Z"/></svg>

<svg xmlns="http://www.w3.org/2000/svg" fill="none" viewBox="0 0 24 24" focusable="false"><path fill="#74767B" fill-rule="evenodd" d="M12.65 2.88c-.41-.19-.89-.19-1.31 0L5.29 5.8c-.42.2-.71.57-.82 1.02l-1.49 6.56c-.1.44 0 .91.29 1.27l4.19 5.25c.29.36.72.57 1.17.57h6.73c.45 0 .89-.21 1.17-.57l4.19-5.25c.29-.36.4-.83.29-1.27l-1.49-6.56c-.1-.45-.4-.82-.81-1.02zm5.49 4.09-6.06-2.91a.17.17 0 0 0-.17 0L5.85 6.97c-.06.03-.1.08-.11.14l-1.49 6.56c-.02.06 0 .12.03.16l4.2 5.26c.03.05.09.08.15.08h6.73c.06 0 .12-.03.15-.08l4.2-5.26c.04-.04.05-.1.04-.16l-1.5-6.56a.2.2 0 0 0-.11-.14M12 6c.35 0 .65.29.65.65v1.12c.86.13 1.63.52 2.24 1.09l.89-.71c.28-.22.69-.18.91.11.23.28.18.68-.1.91l-.89.71c.36.62.56 1.34.56 2.11 0 .1 0 .21-.01.31l1.12.26c.35.08.56.43.49.78-.08.35-.43.57-.78.49l-1.12-.26a4.27 4.27 0 0 1-1.55 1.93l.5 1.05c.16.32.02.71-.3.86-.32.16-.71.03-.87-.3l-.5-1.04c-.4.12-.81.18-1.24.18-.44 0-.85-.06-1.25-.18l-.5 1.04c-.16.33-.55.46-.87.3a.64.64 0 0 1-.3-.86l.5-1.05a4.2 4.2 0 0 1-1.54-1.93l-1.13.26c-.35.08-.7-.14-.78-.49a.66.66 0 0 1 .49-.78l1.12-.26c0-.1-.01-.21-.01-.31 0-.77.2-1.49.56-2.11l-.89-.71a.64.64 0 0 1-.1-.91c.22-.29.63-.33.91-.11l.89.71c.61-.57 1.38-.96 2.25-1.09V6.65c0-.36.29-.65.65-.65m0 8.95a2.966 2.966 0 0 0 0-5.93 2.97 2.97 0 0 0-2.97 2.97c0 1.63 1.33 2.96 2.97 2.96m0-1.96c.55 0 1-.45 1-1 0-.56-.45-1-1-1-.56 0-1 .44-1 1 0 .55.44 1 1 1"/></svg>
